src/images/info-icon.svg

<svg xmlns="http://www.w3.org/2000/svg" width="15" height="15" viewBox="0 0 15 15">
  <path fill="#C1CAD4" fill-rule="evenodd" d="M0,7.5 C0,11.6421176 3.35788235,15 7.5,15 C11.6421176,15 15,11.6422941 15,7.5 C15,3.35770588 11.6421176,0 7.5,0 C3.35788235,0 0,3.35788235 0,7.5 Z M7.46258824,11.6941765 C7.46258824,11.6941765 7.11458824,11.9255294 6.87670588,11.9244706 C6.85552941,11.9341765 6.843,11.9398235 6.843,11.9398235 L6.84352941,11.9244706 C6.79358824,11.9221765 6.74329412,11.9151176 6.69264706,11.9024118 L6.61747059,11.8838824 C6.20205882,11.7808235 5.98217647,11.3689412 6.08558824,10.9537059 L6.66388235,8.62235294 L6.92488235,7.56935294 C7.16770588,6.59170588 6.15494118,7.77723529 5.94723529,7.32688235 C5.81011765,7.02917647 6.735,6.40447059 7.41070588,5.93347059 C7.41070588,5.93347059 7.75835294,5.70247059 7.99641176,5.70335294 C8.01776471,5.69347059 8.03029412,5.688 8.03029412,5.688 L8.02941176,5.70335294 C8.07970588,5.70564706 8.13,5.71270588 8.18064706,5.72523529 L8.25582353,5.74394118 C8.67123529,5.847 8.92429412,6.26717647 8.82123529,6.68241176 L8.24311765,9.01394118 L7.98158824,10.0669412 C7.73911765,11.0445882 8.73511765,9.85447059 8.94264706,10.3053529 C9.07976471,10.6027059 8.13811765,11.2231765 7.46258824,11.6941765 L7.46258824,11.6941765 Z M8.92835294,4.407 C8.784,4.98847059 8.19564706,5.343 7.61435294,5.19864706 C7.03270588,5.05429412 6.67817647,4.46611765 6.82252941,3.88447059 C6.96688235,3.30282353 7.55523529,2.94847059 8.13652941,3.09282353 C8.71817647,3.237 9.07252941,3.82535294 8.92835294,4.407 L8.92835294,4.407 Z"/>
</svg>

<?xml version="1.0" encoding="utf-8"?>
<!-- Generator: Adobe Illustrator 22.0.1, SVG Export Plug-In . SVG Version: 6.00 Build 0)  -->
<svg version="1.1" id="Layer_1" xmlns="http://www.w3.org/2000/svg" xmlns:xlink="http://www.w3.org/1999/xlink" x="0px" y="0px"
	 viewBox="0 0 15 15" style="enable-background:new 0 0 15 15;" xml:space="preserve">
<style type="text/css">
	.st0{fill:#757F8A;}
</style>
<path class="st0" d="M0,7.5C0,11.6,3.4,15,7.5,15S15,11.6,15,7.5S11.6,0,7.5,0S0,3.4,0,7.5z M7.5,11.7c0,0-0.3,0.2-0.6,0.2
	c0,0,0,0,0,0l0,0c0,0-0.1,0-0.2,0l-0.1,0C6.2,11.8,6,11.4,6.1,11l0.6-2.3l0.3-1.1c0.2-1-0.8,0.2-1-0.2C5.8,7,6.7,6.4,7.4,5.9
	c0,0,0.3-0.2,0.6-0.2c0,0,0,0,0,0l0,0c0.1,0,0.1,0,0.2,0l0.1,0c0.4,0.1,0.7,0.5,0.6,0.9L8.2,9L8,10.1c-0.2,1,0.8-0.2,1,0.2
	C9.1,10.6,8.1,11.2,7.5,11.7L7.5,11.7z M8.9,4.4C8.8,5,8.2,5.3,7.6,5.2C7,5.1,6.7,4.5,6.8,3.9s0.7-0.9,1.3-0.8
	C8.7,3.2,9.1,3.8,8.9,4.4L8.9,4.4z"/>
</svg>
